build/svg/chart2/res/regpoly.svg

<svg height="30" viewBox="0 0 15 17.307692" width="30" xmlns="http://www.w3.org/2000/svg"><path d="m.0000011 16.153846h14.9999989v-15h-14.9999989z" fill="#fff"/><g fill="#762572"><path d="m.5769241 14.423076h1.153846v-1.153846h-1.153846z"/><path d="m4.0384619 4.6153848h1.153846v-1.153846h-1.153846z"/><path d="m2.942308 11.538461h1.153846v-1.153845h-1.153846z"/><path d="m6.3461539 12.692308h1.1538459v-1.153846h-1.1538459z"/><path d="m8.6538461 8.076923h1.1538459v-1.1538461h-1.1538459z"/><path d="m12.692307 15h1.153846v-1.153846h-1.153846z"/><path d="m11.538461 11.538462h1.153846v-1.153846h-1.153846z"/></g><path d="m.8653851 16.153846c-.01086386-1.153846.2884614-4.323942.8653845-4.326923.5769231-.003.5769231.581545 1.4423076.576923.8653845-.0046.8653846-6.9065107 1.7307691-6.9230768.8653845-.016566 1.1286244 5.1952748 2.0192306 5.1923078.8906062-.003 1.1538461-2.3017694 1.7307691-2.3076925.576923-.00592 1.1538468 4.0296245 2.019231 4.0384615.865384.0088 1.2033-1.727257 2.01923-1.730769.81593-.0035 1.414974 4.326923 1.442308 5.480769" fill="none" stroke="#e95420" stroke-linecap="square" stroke-linejoin="round" stroke-width=".576923"/><path d="m-.57692287 16.730769v-16.15384603h16.15384487v16.15384603zm.57692303-.576923h14.99999884v-15h-14.99999884z" fill="#232629"/></svg>

<svg height="30" viewBox="0 0 15 17.308" width="30" xmlns="http://www.w3.org/2000/svg"><path d="M0 16.154h15v-15H0z" fill="#fff"/><g fill="#762572"><path d="M.577 14.423H1.73V13.27H.577zM4.038 4.615h1.154V3.462H4.038zM2.942 11.538h1.154v-1.153H2.942zM6.346 12.692H7.5v-1.154H6.346zM8.654 8.077h1.154V6.923H8.654zM12.692 15h1.154v-1.154h-1.154zM11.538 11.538h1.154v-1.153h-1.154z"/></g><path d="M.865 16.154c-.01-1.154.289-4.324.866-4.327.577-.003.577.581 1.442.577.865-.005.865-6.907 1.73-6.923.866-.017 1.13 5.195 2.02 5.192.89-.003 1.154-2.302 1.73-2.308.578-.006 1.155 4.03 2.02 4.039.865.009 1.203-1.727 2.02-1.73.815-.004 1.414 4.326 1.442 5.48" fill="none" stroke="#e95420" stroke-linecap="square" stroke-linejoin="round" stroke-width=".577"/><path d="M-.577 16.73V.578h16.154V16.73zM0 16.155h15v-15H0z" fill="#232629"/></svg>
